X: 36
T: CHIRPING OF THE NIGHTINGALE
B: FIFTY OLD ENGLISH FOLK DANCE AIRS", Edgar H. Hunt ed., Schott & Co. Ltd. pub., London 1939
Z: 2004-2014 John Chambers <jc:trillian.mit.edu>
M: 6/8
L: 1/8
K: G
|:\
g2g g>fe | f2g a>ba |\
g>ag g>fe | d2c (BG2) :|\
|: B>cd e2d | g2d (BG2) |
B>cd e2d | g2d (cA2) |\
B>cd efd | g>fe dec |\
B>AB (A2G) | G6 :|

%%sep 1 1 500
%%sep 1 1 500
